X:1
T:Broxburn, LMD
T:Broxburn, LMD
T:Lindsay Stein, 2000
T:Public Domain Courtesy of the Cyber Hymnal™
C:Lindsay Stein, 2000
Z:Public Domain
Z:Courtesy of the Cyber Hymnal™
%%score ( 1 2 ) ( 3 4 )
L:1/8
M:3/4
K:D
V:1 treble 
V:2 treble 
V:3 bass 
V:4 bass 
V:1
 F2 G2 F2 | [DE]4 [CE]2 | [B,D]4 [CA]2 | [DF]6 | F2 G2 A2 | [DB]4 G2 | (E2 F2) G2 | [DF]6 | %8
 A2 B2 A2 | [Fd]4 A2 | ([FA]2 [DG]2) F2 | E6 | [B,D]2 C2 [B,D]2 | [CA]4 F2 | [DG]2 (F2 E2) | D6 | %16
 F2 G2 A2 | [GB]6 | E2 F2 G2 | [DF]6 | F2 G2 A2 | B4 B2 | (B2 c2) d2 | [Ec]6 | d2 c2 B2 | %25
 [FA]4 F2 | (A2 G2) F2 | [CE]6 | [B,D]2 C2 [B,D]2 | [CA]4 F2 | ([B,G]2 F2) E2 | [A,D]6 |] %32
V:2
 D6 | x6 | x6 | x6 | D4 A2 | x4 G2 | D4 G2 | x6 | F6 | x4 A2 | x4 F2 | (D4 C2) | x2 C2 x2 | x4 F2 | %14
 x2 C4 | D6 | D6 | x6 | D6 | x6 | D6 | G6 | ^G6 | x6 | F6 | x4 F2 | C4 F2 | x6 | x2 C2 x2 | x4 F2 | %30
 x2 C4 | x6 |] %32
V:3
 [B,,A,]6 | [A,,A,]6 | [B,,F,]6 | [D,A,]6 | [D,A,]6 | [G,,G,]6 | [A,,A,]6 | [D,A,]6 | [D,A,]6 | %9
 [D,A,]6 | ([B,,A,]2 E,2) C,2 | [A,,A,]6 | [B,,F,]6 | [A,,A,]6 | [G,,B,]2 [A,,A,]4 | [D,A,]6 | %16
 [D,A,]2 E,2 F,2 | [G,D]4 G,,2 | [A,,A,]6 | [D,A,]6 | [D,A,]2 E,2 F,2 | [G,D]6 | [^G,E]6 | %23
 [A,C]4 A,,2 | [D,A,]6 | [D,A,]6 | [A,,A,]6 | [A,,A,]6 | [B,,F,]6 | [A,,A,]6 | %30
 ([G,,D,]2 [A,,E,]4) | [D,F,]6 |] %32
V:4
 x6 | x6 | x6 | x6 | x6 | x6 | x6 | x6 | x6 | x6 | x6 | x6 | x6 | x6 | x6 | x6 | x6 | x6 | x6 | %19
 x6 | x2 E,2 F,2 | x6 | x6 | x4 A,,2 | x6 | x6 | x6 | x6 | x6 | x6 | x6 | x6 |] %32

